public/avatar/shoe/52.svg

<svg xmlns:xlink="http://www.w3.org/1999/xlink" height="38.3" width="36.05" xmlns="http://www.w3.org/2000/svg"><use height="19.05" transform="translate(9.55 8.95)" width="21.9" xlink:href="#a"/><defs><g id="a"><path d="m13.35 3.55 1.2.15q1.35.4 2.45 1.35 2.25 1.4 3.2 4v-.2l.3.9v.05l.35 1.3.05 1.7q-.55 1.3-2.35 2.15Q16 16.2 12.6 17.1q-4.75 1.2-7.45.9-2.75-.4-4.05-2.05l-.1-2.6q.45-2.3 2.2-4.05l.35-.35q.3-1.6 1.8-2.95l1.15-.75.6-1.95-.05-.2q.05-.75.95-1.15.95-1.1 2.4-.95 2.1.3 2.95 2.55Z" fill="none" stroke="#000" stroke-linecap="round" stroke-linejoin="round" stroke-width="2"/><path d="M-8.3 11.7q-3.35.05-4.65-1.9-1.1-1.6.95-5 1.1-2.05 4.05-4.35 3.4-2.55 5.9-2.55 6.25 0 8.3 6 .55 1.65.3 2.4Q6.2 7.95 5 8.55-1.45 11.6-8.3 11.7" fill="#fff" fill-rule="evenodd" transform="translate(14.25 5.9)"/><path d="M-1.25-3.1Q-.4-1.25.15-1.05 3.3.55 2.4.45q-.7 2.4-3.85 2.25-3.2-.15-6.45-2.9.7-5.1 4.05-4.7 1.9.25 2.6 1.8" fill="#fff" fill-rule="evenodd" transform="translate(14.25 5.9)"/><path d="M3.25.85 1.6 2l-8.2 5.1-5.1-.55q1-3.95 3.35-5.85Q-6.5-.75-4.3-1.6 6.05-1.15 3.25.85" fill="#fb00ff" fill-rule="evenodd" transform="translate(14.25 5.9)"/><path d="M.3-2.2Q2-1.7 3.25-.45l1 .9-1 .4q-2.1 1.3-4.9.5Q-4.4.45-5.55-.9l-.5-.05 2.2-.9L.3-2.2" fill="#fff" fill-rule="evenodd" transform="translate(14.25 5.9)"/><path d="m.05-1.95 1.5.45q2.4.95 3.85 3.2 1.55 2.45-1 3.45-1.15.45-1.45-.3l-.5-1.75-1.1-1.9Q.2.1-.05-.5H.5Q-.45-.85.05-1.95" fill="#d1d1d1" fill-rule="evenodd" transform="translate(14.25 5.9)"/><path d="M3.9 7.1q-5.6 2.35-8.05 3l-1.4.25.6-2.35q3.2-.2 5.8-1.2 3.85-1.3 4.7-2.3.5-.5.4-1.55l.6 2.1q-.25 1-2.65 2.05" fill="#ff80ff" fill-rule="evenodd" transform="translate(14.25 5.9)"/><path d="m-4.65 10.85-3.65.25q-5.2 0-5.1-2.5.05-2.9 2.35-5.2.65-.65 1.15 1.45l2.7.85q1.7.4 2.25 1.1 1 1.15.3 4.05" fill="#fdc2ff" fill-rule="evenodd" transform="translate(14.25 5.9)"/><path d="M6.55 5.05q.4 1.25.1 1.85Q6.1 8.2 4.3 9.05 1.75 10.3-1.65 11.2q-4.75 1.2-7.45.9-2.75-.4-4.05-2.05l-.2-2.75q1.5 1.7 2.95 2.1 3.35.75 6.7-.05 4.9-1.4 8.4-2.95l1.85-1.35" fill="#b000b0" fill-rule="evenodd" transform="translate(14.25 5.9)"/><path d="M-7.2-2.8q.15-1.65 2.5-1.35 2.35.35 2.25 2.3-.1 1.65-2.5 1.3Q-7.3-.9-7.2-2.8" fill="#fb00ff" fill-rule="evenodd" transform="translate(14.25 5.9)"/><path d="M-10.2 4.75q-.85-.55-.45-2Q-10.3 1.25-8.9.1q3.05-2.4 4.95-.45Q-2.9.8-3.8 2.35q-.75 1.35-2.25 2.1-2.4 1.25-4.15.3" fill="#6e006e" fill-rule="evenodd" transform="translate(14.25 5.9)"/><path d="m-10.5 4.5 2.6-3.1q1.6-1.75 3.25-2.45" fill="none" stroke="#fff" stroke-linecap="round" stroke-linejoin="round" transform="translate(14.25 5.9)"/><path d="M-.95-2.35h.65Q2.5-1.5 4.25.2 2 1 1.35.65L.5-.05q-1.05-.9-1.45-2.3" fill="#8a8a8a" fill-rule="evenodd" transform="translate(14.25 5.9)"/></g></defs></svg>

<?xml version="1.0" encoding="UTF-8" standalone="no"?>
<svg xmlns:xlink="http://www.w3.org/1999/xlink" height="38.3px" width="36.05px" xmlns="http://www.w3.org/2000/svg">
  <g transform="matrix(1.0, 0.0, 0.0, 1.0, 23.8, 14.85)">
    <use height="19.05" transform="matrix(1.0, 0.0, 0.0, 1.0, -14.25, -5.9)" width="21.9" xlink:href="#shape0"/>
  </g>
  <defs>
    <g id="shape0" transform="matrix(1.0, 0.0, 0.0, 1.0, 14.25, 5.9)">
      <path d="M-0.9 -2.35 L0.3 -2.2 Q1.65 -1.8 2.75 -0.85 5.0 0.55 5.95 3.15 L5.95 2.95 6.25 3.85 6.25 3.9 6.6 5.2 6.65 6.9 Q6.1 8.2 4.3 9.05 1.75 10.3 -1.65 11.2 -6.4 12.4 -9.1 12.1 -11.85 11.7 -13.15 10.05 L-13.25 7.45 Q-12.8 5.15 -11.05 3.4 L-10.7 3.05 Q-10.4 1.45 -8.9 0.1 L-7.75 -0.65 -7.15 -2.6 -7.2 -2.8 Q-7.15 -3.55 -6.25 -3.95 -5.3 -5.05 -3.85 -4.9 -1.75 -4.6 -0.9 -2.35 Z" fill="none" stroke="#000000" stroke-linecap="round" stroke-linejoin="round" stroke-width="2.0"/>
      <path d="M-8.3 11.7 Q-11.65 11.75 -12.95 9.8 -14.05 8.2 -12.0 4.8 -10.9 2.75 -7.95 0.45 -4.55 -2.1 -2.05 -2.1 4.2 -2.1 6.25 3.9 6.8 5.55 6.55 6.3 6.2 7.95 5.0 8.55 -1.45 11.6 -8.3 11.7" fill="#ffffff" fill-rule="evenodd" stroke="none"/>
      <path d="M-1.25 -3.1 Q-0.4 -1.25 0.15 -1.05 3.3 0.55 2.4 0.45 1.7 2.85 -1.45 2.7 -4.65 2.55 -7.9 -0.2 -7.2 -5.3 -3.85 -4.9 -1.95 -4.65 -1.25 -3.1" fill="#ffffff" fill-rule="evenodd" stroke="none"/>
      <path d="M3.25 0.85 L1.6 2.0 -6.6 7.1 -11.7 6.55 Q-10.7 2.6 -8.35 0.7 -6.5 -0.75 -4.3 -1.6 6.05 -1.15 3.25 0.85" fill="#fb00ff" fill-rule="evenodd" stroke="none"/>
      <path d="M0.3 -2.2 Q2.0 -1.7 3.25 -0.45 L4.25 0.45 3.25 0.85 Q1.15 2.15 -1.65 1.35 -4.4 0.45 -5.55 -0.9 L-6.05 -0.95 -3.85 -1.85 0.3 -2.2" fill="#ffffff" fill-rule="evenodd" stroke="none"/>
      <path d="M0.05 -1.95 L1.55 -1.5 Q3.95 -0.55 5.4 1.7 6.95 4.15 4.4 5.15 3.25 5.6 2.95 4.85 L2.45 3.1 1.35 1.2 Q0.2 0.1 -0.05 -0.5 L0.5 -0.5 Q-0.45 -0.85 0.05 -1.95" fill="#d1d1d1" fill-rule="evenodd" stroke="none"/>
      <path d="M3.9 7.1 Q-1.7 9.45 -4.15 10.1 L-5.55 10.35 -4.95 8.0 Q-1.75 7.8 0.85 6.8 4.7 5.5 5.55 4.5 6.05 4.0 5.95 2.95 L6.55 5.05 Q6.3 6.05 3.9 7.1" fill="#ff80ff" fill-rule="evenodd" stroke="none"/>
      <path d="M-4.65 10.85 L-8.3 11.1 Q-13.5 11.1 -13.4 8.6 -13.35 5.7 -11.05 3.4 -10.4 2.75 -9.9 4.85 L-7.2 5.7 Q-5.5 6.1 -4.95 6.8 -3.95 7.95 -4.65 10.85" fill="#fdc2ff" fill-rule="evenodd" stroke="none"/>
      <path d="M6.55 5.05 Q6.95 6.3 6.65 6.9 6.1 8.2 4.3 9.05 1.75 10.3 -1.65 11.2 -6.4 12.4 -9.1 12.1 -11.85 11.7 -13.15 10.05 L-13.35 7.3 Q-11.85 9.0 -10.4 9.4 -7.05 10.15 -3.7 9.35 1.2 7.95 4.7 6.4 L6.55 5.05" fill="#b000b0" fill-rule="evenodd" stroke="none"/>
      <path d="M-7.2 -2.8 Q-7.05 -4.45 -4.7 -4.15 -2.35 -3.8 -2.45 -1.85 -2.55 -0.2 -4.95 -0.55 -7.3 -0.9 -7.2 -2.8" fill="#fb00ff" fill-rule="evenodd" stroke="none"/>
      <path d="M-10.2 4.75 Q-11.05 4.2 -10.65 2.75 -10.3 1.25 -8.9 0.1 -5.85 -2.3 -3.95 -0.35 -2.9 0.8 -3.8 2.35 -4.55 3.7 -6.05 4.45 -8.45 5.7 -10.2 4.75" fill="#6e006e" fill-rule="evenodd" stroke="none"/>
      <path d="M-10.5 4.5 L-7.9 1.4 Q-6.3 -0.35 -4.65 -1.05" fill="none" stroke="#ffffff" stroke-linecap="round" stroke-linejoin="round" stroke-width="1.0"/>
      <path d="M-0.95 -2.35 L-0.3 -2.35 Q2.5 -1.5 4.25 0.2 2.0 1.0 1.35 0.65 L0.5 -0.05 Q-0.55 -0.95 -0.95 -2.35" fill="#8a8a8a" fill-rule="evenodd" stroke="none"/>
    </g>
  </defs>
</svg>
